build/img/sprite.svg

<svg xmlns="http://www.w3.org/2000/svg" xmlns:xlink="http://www.w3.org/1999/xlink"><symbol id="cat-energy-text" viewBox="0 0 129 24">
<path d="M2.10253 22.0513C0.968358 20.3682 0.405343 18.3503 0.50003 16.3077V7.79487C0.362683 5.73031 0.890444 3.67661 2.00238 1.94872C3.1041 0.615385 4.80676 0 7.31067 0C9.81458 0 11.4171 0.615385 12.4187 1.74359C13.506 3.17255 14.0409 4.96181 13.921 6.76923V8.82051H9.01333V6.46154C9.05297 5.76385 8.95065 5.06533 8.71286 4.41026C8.58576 4.14583 8.38431 3.9264 8.13443 3.78018C7.88455 3.63395 7.59766 3.56763 7.31067 3.58974C6.60958 3.58974 6.10879 3.79487 5.90848 4.30769C5.68191 5.03643 5.58025 5.79984 5.60801 6.5641V17.5385C5.55512 18.2799 5.69327 19.0227 6.00864 19.6923C6.20895 20.2051 6.70973 20.4103 7.41083 20.4103C8.11192 20.4103 8.51255 20.2051 8.71286 19.6923C8.94058 18.9992 9.04242 18.2692 9.01333 17.5385V15.0769H13.921V17.1282C14.0229 18.9651 13.4911 20.7803 12.4187 22.2564C11.4171 23.4872 9.71443 24.1026 7.31067 24.1026C4.90692 24 3.1041 23.3846 2.10253 22.0513Z" fill="#111111"/>
<path d="M19.8302 0.307617H25.5391L29.7457 23.6922H25.1385L24.3372 18.7692H21.0321L20.2308 23.6922H15.5235L19.8302 0.307617ZM23.9366 15.6922L22.7347 6.56403L21.5329 15.6922H23.9366Z" fill="#111111"/>
<path d="M33.2512 4.20505H29.8458V0.307617H41.7645V4.10249H38.3591V23.6922H33.2512V4.20505Z" fill="#111111"/>
<path d="M50.8787 0.307617H59.6925V2.76916H53.9836V10.4615H58.5908V12.8204H53.9836V21.4358H59.6925V23.7948H50.7786V0.307617H50.8787Z" fill="#111111"/>
<path d="M62.2966 0.307617H64.5L71.0102 15.7948V0.307617H73.6142V23.6922H71.6111L65.0008 7.69223V23.6922H62.2966V0.307617Z" fill="#111111"/>
<path d="M76.6189 0.307617H85.4327V2.76916H79.7238V10.4615H84.331V12.8204H79.7238V21.4358H85.4327V23.7948H76.6189V0.307617Z" fill="#111111"/>
<path d="M88.0368 0.3076H92.644C94.4564 0.179397 96.2575 0.685711 97.7519 1.7435C98.8537 2.66657 99.3544 4.3076 99.3544 6.46145C99.3544 9.4358 98.453 11.282 96.5501 11.8973L99.7551 23.5897H96.6502L93.6455 12.6153H91.1416V23.5897H87.9366V0.3076H88.0368ZM92.4437 10.3589C93.4762 10.446 94.5053 10.1553 95.3482 9.53837C95.9491 9.02555 96.2496 7.99991 96.2496 6.46145C96.2774 5.69719 96.1757 4.93378 95.9491 4.20504C95.7237 3.68211 95.3366 3.24964 94.8474 2.97427C94.1576 2.65236 93.4003 2.51137 92.644 2.56401H91.2418V10.2563H92.4437V10.3589Z" fill="#111111"/>
<path d="M103.361 21.9487C102.32 20.1554 101.831 18.0821 101.959 15.9999V8.20507C101.934 6.71875 102.102 5.23567 102.459 3.79481C102.794 2.71811 103.462 1.78218 104.362 1.12815C105.481 0.450275 106.771 0.128917 108.068 0.20507C110.171 0.20507 111.674 0.71789 112.575 1.8461C113.612 3.33582 114.108 5.14977 113.977 6.9743V7.79481H110.973V7.07687C110.977 6.21789 110.91 5.36008 110.772 4.51276C110.688 3.97732 110.4 3.49792 109.971 3.17943C109.408 2.80104 108.74 2.62099 108.068 2.66661C107.35 2.61949 106.639 2.83785 106.065 3.28199C105.829 3.48529 105.637 3.73569 105.499 4.01787C105.361 4.30004 105.281 4.60805 105.264 4.92302C105.132 5.83993 105.065 6.76543 105.063 7.69225V16.4102C104.99 17.7384 105.194 19.0674 105.664 20.3076C106.065 21.1281 106.866 21.4358 108.068 21.4358C108.543 21.4964 109.024 21.4119 109.452 21.1929C109.88 20.9739 110.234 20.6302 110.472 20.2051C111.001 18.9081 111.241 17.5064 111.173 16.1025V14.4615H108.268V12.1025H114.077V23.6923H112.074L111.774 21.0256C111.511 21.9193 110.965 22.6975 110.22 23.2364C109.476 23.7753 108.578 24.0441 107.667 23.9999C106.84 24.0498 106.013 23.8885 105.261 23.5304C104.51 23.1724 103.857 22.6289 103.361 21.9487Z" fill="#111111"/>
<path d="M120.487 15.4871L115.58 0.410156H118.584L122.09 11.6922L125.495 0.410156H128.5L123.592 15.4871V23.6922H120.588V15.4871H120.487Z" fill="#111111"/>
</symbol><symbol id="html-academy" viewBox="0 0 27 34">
<path d="M13.6426 0.0157537L13.5 0L0 1.40733V26.0129L13.5 34L27 26.0129V1.40733L13.6426 0.0157537ZM25.2344 25.0151L13.5 31.9573L1.76561 25.0151V14.9293L13.4507 21.8451L13.4701 23.0984L5.45351 18.3548L5.44295 19.5801L13.4894 24.3885L13.5088 25.675L5.46408 20.9174L5.45351 22.1427L13.5 26.9511L21.6239 22.1182V20.8929V16.909L25.2432 14.7595L25.2344 25.0151ZM25.2344 13.4519L22.0147 15.3319L20.5325 16.2071L13.4666 12.0201L13.456 13.2454L19.4957 16.818L19.4429 16.8495L19.3126 16.9247L18.4536 17.4166L13.4666 14.4689L13.456 15.6942L17.3921 18.0222L16.4591 18.6314L16.438 18.6436L13.4666 16.902L13.456 18.1273L15.4029 19.2615L13.4155 20.4483L1.7973 13.5762L13.4349 6.61831L25.2344 13.4519ZM25.2344 12.2266L13.4401 5.31075L1.76561 12.2196V2.9897L13.5 1.76442L25.2344 2.9897V12.2266Z" fill="currentColor"/>
</symbol><symbol id="icon-email" viewBox="0 0 18 14">
<path d="M0.5 5.5V13.5H17.5V5.5M0.5 0.5H17.5V2.5L9 8.5L0.5 2.5V0.5Z" stroke="black" stroke-linecap="round" stroke-linejoin="round"/>
</symbol><symbol id="icon-phone" viewBox="0 0 16 16">
<path d="M7 8H15.5M15.5 8L13 5.5M15.5 8L13 10.5M5.5 0.5V5.5H2.5V10.5H5.5V15.5H3C1.5 15.5 0.5 14.5 0.5 13V3C0.5 1.5 1.5 0.5 3 0.5H5.5Z" stroke="black" stroke-linecap="round" stroke-linejoin="round"/>
</symbol><symbol id="nutrition-programs-link-icon" viewBox="0 0 24 12">
<line y1="6" x2="18" y2="6" stroke="black" stroke-width="2"/>
<path d="M24 6L17.25 11.1962L17.25 0.803848L24 6Z" fill="black"/>
</symbol><symbol id="slider" viewBox="0 0 40 40">
<rect x="1" y="1" width="38" height="38" rx="19" fill="white"/>
<path d="M16 11L8 20L16 29V11Z" fill="#666666"/>
<path d="M32 20L24 11V29L32 20Z" fill="#666666"/>
<rect x="1" y="1" width="38" height="38" rx="19" stroke="#666666" stroke-width="2"/>
</symbol><symbol id="telegram" viewBox="0 0 21 18">
<path fill-rule="evenodd" clip-rule="evenodd" d="M19.9608 0.152905C20.1393 0.302216 20.2255 0.534898 20.1872 0.764481L17.5611 16.5214C17.5244 16.7411 17.3789 16.9273 17.1745 17.0159C16.97 17.1045 16.7346 17.0833 16.5493 16.9597L8.67082 11.7074C8.51771 11.6054 8.41447 11.4437 8.38624 11.2619C8.358 11.08 8.40738 10.8947 8.52233 10.751L11.133 7.48773L6.77303 10.3944C6.577 10.525 6.32597 10.5407 6.11524 10.4353L0.862931 7.80915C0.627693 7.69153 0.485347 7.44488 0.5012 7.18235C0.517052 6.91983 0.688044 6.6921 0.935726 6.60364L19.3188 0.0382579C19.538 -0.0400244 19.7822 0.00359465 19.9608 0.152905ZM2.82626 7.32275L6.36168 9.09046L13.9231 4.0495C14.1925 3.86994 14.5525 3.91349 14.7712 4.1521C14.99 4.3907 15.0022 4.75314 14.8 5.00591L9.99502 11.0121L16.4328 15.3039L18.7083 1.65058L2.82626 7.32275Z" fill="currentColor"/>
</symbol><symbol id="vkontakte" viewBox="0 0 28 17">
<path d="M0.5 2.33876C0.5 1.48373 1.0151 1.02268 2.04531 0.955621L6.01515 0.980769C6.28158 0.980769 6.45921 1.10651 6.54802 1.35799C6.95655 2.61538 7.41392 3.70094 7.92014 4.61465C8.42637 5.52835 9.08801 6.58038 9.90507 7.77071C9.97611 7.9216 10.0916 7.99704 10.2514 7.99704C10.3758 7.99704 10.4735 7.93836 10.5445 7.82101L10.6244 7.54438L10.6511 3.19379C10.6511 2.89201 10.5756 2.69083 10.4246 2.59024C10.2736 2.48965 9.99388 2.4142 9.58535 2.36391C9.26563 2.31361 9.10577 2.12919 9.10577 1.81065C9.10577 1.74359 9.11465 1.69329 9.13241 1.65976C9.50542 0.57002 10.5711 0.0251479 12.3296 0.0251479L13.8216 0C14.4966 0 15.0561 0.15927 15.5001 0.477811C15.9442 0.796351 16.1662 1.29931 16.1662 1.98669V7.69527C16.2906 7.77909 16.406 7.82101 16.5126 7.82101C16.779 7.82101 17.0099 7.67012 17.2053 7.36834C19.1592 4.78649 20.216 3.05966 20.3759 2.18787C20.3759 2.1711 20.3936 2.12919 20.4291 2.06213C20.5535 1.81065 20.7577 1.5927 21.0419 1.40828C21.3261 1.22387 21.5748 1.09813 21.788 1.03107C21.859 0.997535 21.9389 0.980769 22.0277 0.980769H26.1574L26.4239 1.00592C26.7791 1.00592 27.0544 1.16519 27.2498 1.48373C27.3209 1.58432 27.3697 1.69329 27.3964 1.81065C27.423 1.92801 27.4408 2.04536 27.4496 2.16272C27.4585 2.28008 27.463 2.34714 27.463 2.36391V2.53994C27.3386 3.22732 27.0233 3.9608 26.5171 4.74038C26.0109 5.51997 25.367 6.36243 24.5855 7.26775C23.804 8.17308 23.3155 8.76825 23.1201 9.05326C22.9603 9.25444 22.8803 9.43886 22.8803 9.60651C22.8803 9.74063 22.9514 9.89152 23.0935 10.0592L26.9834 14.6864C27.1965 14.9546 27.3031 15.248 27.3031 15.5666C27.3031 15.9522 27.1432 16.2707 26.8235 16.5222C26.5038 16.7737 26.1219 16.9162 25.6779 16.9497L25.2249 16.9749H21.1752C21.1574 16.9749 21.1219 16.979 21.0686 16.9874C21.0153 16.9958 20.9798 17 20.962 17C20.5712 17 20.2071 16.8407 19.8696 16.5222C19.7453 16.3881 18.9105 15.3989 17.3652 13.5547C17.2764 13.4374 17.152 13.3284 16.9922 13.2278C16.9211 13.4961 16.8279 13.8817 16.7124 14.3846C16.597 14.8876 16.5126 15.248 16.4593 15.466L16.3794 15.8935C16.2018 16.4803 15.8287 16.8323 15.2604 16.9497L14.8874 16.9749H12.2763C10.8021 16.9749 9.33224 16.3378 7.86686 15.0636C6.40148 13.7894 5.08264 12.1423 3.91034 10.122C2.73803 8.10182 1.64566 5.75049 0.633216 3.06805C0.544405 2.8501 0.5 2.607 0.5 2.33876ZM16.5126 8.85207C16.1396 8.85207 15.8021 8.75567 15.5001 8.56287C15.1982 8.37007 15.0472 8.10602 15.0472 7.77071V1.98669C15.0472 1.65138 14.9584 1.41248 14.7808 1.26997C14.6032 1.12747 14.2923 1.05621 13.8483 1.05621L12.3296 1.10651C11.5658 1.10651 10.9886 1.23225 10.5978 1.48373C11.3793 1.8358 11.7701 2.40582 11.7701 3.19379V7.61982C11.7346 8.03895 11.5569 8.38683 11.2372 8.66346C10.9175 8.94009 10.5623 9.0784 10.1715 9.0784C9.63863 9.0784 9.2301 8.83531 8.94591 8.34911C7.56046 6.37081 6.53025 4.4931 5.85529 2.71598L5.6155 2.06213L2.07195 2.03698C1.84104 2.03698 1.71227 2.04956 1.68562 2.0747C1.65898 2.09985 1.64566 2.1711 1.64566 2.28846C1.64566 2.43935 1.66342 2.59862 1.69895 2.76627L2.25845 4.17456C3.75048 7.81262 5.37127 10.6795 7.12085 12.7751C8.87042 14.8708 10.5889 15.9186 12.2763 15.9186H14.9406C15.0472 15.9186 15.1271 15.8893 15.1804 15.8306C15.2337 15.7719 15.2781 15.6588 15.3136 15.4911L15.3669 15.2396L15.8732 13.0266C16.0152 12.7249 16.1396 12.5237 16.2462 12.4231C16.4415 12.2387 16.6725 12.1465 16.9389 12.1465C17.3652 12.1465 17.8003 12.3895 18.2444 12.8757L20.5091 15.5917C20.6512 15.8097 20.8022 15.9186 20.962 15.9186H25.3581C25.891 15.9186 26.1574 15.7929 26.1574 15.5414C26.1574 15.4576 26.1308 15.3738 26.0775 15.2899L22.2142 10.7382C21.9123 10.3861 21.7613 10.0089 21.7613 9.60651C21.7613 9.20414 21.9034 8.81854 22.1876 8.4497C22.4185 8.1144 22.867 7.55695 23.5331 6.77737C24.1992 5.99778 24.7809 5.26849 25.2782 4.5895C25.7756 3.9105 26.1042 3.29438 26.264 2.74112L26.3439 2.4142C26.3262 2.38067 26.3173 2.32618 26.3173 2.25074C26.3173 2.1753 26.3084 2.11243 26.2907 2.06213H22.1077C21.8412 2.16272 21.6281 2.31361 21.4682 2.51479L21.3084 2.9926C20.8643 4.14941 19.7009 5.93491 17.8181 8.34911C17.4451 8.68442 17.0099 8.85207 16.5126 8.85207Z" fill="currentColor"/>
</symbol><symbol id="youtube" viewBox="0 0 25 19">
<path d="M16.3509 8.79275L11.1145 5.30184C11.0159 5.23691 10.9016 5.19985 10.7837 5.19459C10.6657 5.18934 10.5486 5.21608 10.4446 5.27198C10.3406 5.32789 10.2537 5.41087 10.193 5.51215C10.1324 5.61343 10.1002 5.72924 10.1 5.84729V12.8291C10.1001 12.9481 10.1327 13.0648 10.1942 13.1667C10.2557 13.2686 10.3438 13.3518 10.4491 13.4073C10.5524 13.4631 10.6691 13.4895 10.7864 13.4837C10.9037 13.478 11.0172 13.4402 11.1145 13.3746L16.3509 9.88366C16.4409 9.82395 16.5148 9.7429 16.5658 9.64772C16.6169 9.55255 16.6436 9.44621 16.6436 9.3382C16.6436 9.23019 16.6169 9.12385 16.5658 9.02868C16.5148 8.93351 16.4409 8.85245 16.3509 8.79275ZM11.4091 11.6073V7.06911L14.8127 9.3382L11.4091 11.6073ZM23.8891 3.04366C23.7942 2.67547 23.6131 2.33511 23.3609 2.05061C23.1086 1.76611 22.7924 1.54561 22.4382 1.40729C18.7182 -0.0217993 12.7509 1.91553e-05 12.5 1.91553e-05C12.2491 1.91553e-05 6.28182 -0.0217993 2.56182 1.40729C2.20764 1.54561 1.8914 1.76611 1.63914 2.05061C1.38689 2.33511 1.20584 2.67547 1.11091 3.04366C0.827273 4.11275 0.5 6.07638 0.5 9.3382C0.5 12.6 0.827273 14.5637 1.11091 15.6327C1.20584 16.0009 1.38689 16.3413 1.63914 16.6258C1.8914 16.9103 2.20764 17.1308 2.56182 17.2691C6.28182 18.6982 12.2491 18.6764 12.5 18.6764H12.5764C13.3291 18.6764 18.8927 18.6327 22.4382 17.2691C22.7924 17.1308 23.1086 16.9103 23.3609 16.6258C23.6131 16.3413 23.7942 16.0009 23.8891 15.6327C24.1727 14.5637 24.5 12.6 24.5 9.3382C24.5 6.07638 24.1727 4.11275 23.8891 3.04366ZM22.6236 15.3055C22.5807 15.472 22.499 15.6259 22.3853 15.7548C22.2715 15.8838 22.1289 15.984 21.9691 16.0473C18.4782 17.3891 12.5655 17.3673 12.5 17.3673C12.4345 17.3673 6.52182 17.3891 3.03091 16.0473C2.87107 15.984 2.72846 15.8838 2.61471 15.7548C2.50096 15.6259 2.41929 15.472 2.37636 15.3055C2.11455 14.3018 1.80909 12.4582 1.80909 9.3382C1.80909 6.2182 2.11455 4.37457 2.37636 3.37093C2.41929 3.20445 2.50096 3.05047 2.61471 2.92156C2.72846 2.79264 2.87107 2.69243 3.03091 2.62911C6.52182 1.28729 12.4345 1.30911 12.5 1.30911C12.5655 1.30911 18.4782 1.28729 21.9691 2.62911C22.1289 2.69243 22.2715 2.79264 22.3853 2.92156C22.499 3.05047 22.5807 3.20445 22.6236 3.37093C22.8855 4.37457 23.1909 6.2182 23.1909 9.3382C23.1909 12.4582 22.8855 14.3018 22.6236 15.3055Z" fill="currentColor"/>
</symbol></svg>

<svg xmlns="http://www.w3.org/2000/svg" xmlns:xlink="http://www.w3.org/1999/xlink"><symbol id="cat-enegry"><path d="M2.103 22.051A9.498 9.498 0 0 1 .5 16.308V7.795a9.63 9.63 0 0 1 1.502-5.846C3.104.615 4.807 0 7.311 0s4.106.615 5.108 1.744a7.487 7.487 0 0 1 1.502 5.025v2.052H9.013V6.46a5.157 5.157 0 0 0-.3-2.05 1.463 1.463 0 0 0-.579-.63 1.415 1.415 0 0 0-.823-.191c-.701 0-1.202.205-1.403.718a6.774 6.774 0 0 0-.3 2.256v10.974a4.334 4.334 0 0 0 .4 2.154c.2.513.702.718 1.403.718.7 0 1.102-.205 1.302-.718.228-.693.33-1.423.3-2.154v-2.461h4.908v2.051a7.98 7.98 0 0 1-1.502 5.128c-1.002 1.231-2.705 1.847-5.108 1.847-2.404-.103-4.207-.718-5.208-2.052Z" fill="currentColor"/><path d="M19.83.308h5.71l4.206 23.384h-4.607l-.802-4.923h-3.305l-.801 4.923h-4.708L19.83.308Zm4.107 15.384-1.202-9.128-1.202 9.128h2.404Z" fill="#111"/><path d="M33.251 4.205h-3.405V.308h11.918v3.794H38.36v19.59h-5.108V4.205ZM50.879.308h8.814v2.461h-5.71v7.692h4.608v2.36h-4.607v8.615h5.709v2.359h-8.914V.308h.1ZM62.297.308H64.5l6.51 15.487V.308h2.604v23.384h-2.003l-6.61-16v16h-2.704V.308ZM76.619.308h8.814v2.461h-5.71v7.692h4.608v2.36h-4.607v8.615h5.709v2.359h-8.814V.308ZM88.037.308h4.607a7.873 7.873 0 0 1 5.108 1.436c1.102.923 1.602 2.564 1.602 4.717 0 2.975-.901 4.821-2.804 5.436l3.205 11.693H96.65l-3.005-10.975h-2.503V23.59h-3.205V.308h.1Zm4.407 10.05a4.302 4.302 0 0 0 2.904-.82c.601-.512.902-1.538.902-3.077a6.772 6.772 0 0 0-.3-2.256 2.583 2.583 0 0 0-1.103-1.23 4.473 4.473 0 0 0-2.203-.411h-1.402v7.692h1.202v.103ZM103.361 21.949a10.566 10.566 0 0 1-1.402-5.95V8.206c-.025-1.486.143-2.97.5-4.41a5.204 5.204 0 0 1 1.903-2.667 6.421 6.421 0 0 1 3.706-.923c2.103 0 3.606.513 4.507 1.641a7.982 7.982 0 0 1 1.402 5.128v.82h-3.004v-.717a15.503 15.503 0 0 0-.201-2.564 2.056 2.056 0 0 0-.801-1.334 3.04 3.04 0 0 0-1.903-.512 2.955 2.955 0 0 0-2.003.615 2.349 2.349 0 0 0-.801 1.641 19.734 19.734 0 0 0-.201 2.77v8.717a9.527 9.527 0 0 0 .601 3.898c.401.82 1.202 1.128 2.404 1.128.475.06.956-.024 1.384-.243a2.45 2.45 0 0 0 1.02-.988 9.635 9.635 0 0 0 .701-4.102V14.46h-2.905v-2.359h5.809v11.59h-2.003l-.3-2.666a4.18 4.18 0 0 1-1.554 2.21 4.016 4.016 0 0 1-2.553.764 4.907 4.907 0 0 1-2.406-.47 5.037 5.037 0 0 1-1.9-1.581Z" fill="currentColor"/><path d="M120.487 15.487 115.58.41h3.004l3.506 11.282L125.495.41h3.005l-4.908 15.077v8.205h-3.004v-8.205h-.101Z" fill="#111"/></symbol><symbol id="email"><path d="M.5 5.5v8h17v-8M.5.5h17v2L9 8.5l-8.5-6v-2Z" stroke="#000" stroke-linecap="round" stroke-linejoin="round"/></symbol><symbol id="email2"><path d="M.5 5.5v8h17v-8M.5.5h17v2L9 8.5l-8.5-6v-2Z" stroke="#000" stroke-linecap="round" stroke-linejoin="round"/></symbol><symbol id="html-academy"><path d="M13.643.016 13.5 0 0 1.407v24.606L13.5 34 27 26.013V1.407L13.643.016Zm11.591 25L13.5 31.956 1.766 25.015V14.93l11.685 6.916.02 1.253-8.017-4.743-.011 1.225 8.046 4.809.02 1.286-8.045-4.758-.01 1.226L13.5 26.95l8.124-4.833V16.91l3.62-2.15-.01 10.256Zm0-11.564-3.22 1.88-1.482.875-7.065-4.187-.011 1.225 6.04 3.573-.053.031-.13.076-.86.492-4.986-2.948-.011 1.225 3.936 2.328-.933.61-.021.012-2.971-1.742-.011 1.225 1.947 1.135-1.988 1.186-11.618-6.872 11.638-6.958 11.8 6.834Zm0-1.225L13.44 5.31 1.766 12.22V2.99L13.5 1.764 25.234 2.99v9.237Z" fill="currentColor"/></symbol><symbol id="phone"><path d="M10 10h8.5m0 0L16 7.5m2.5 2.5L16 12.5m-7.5-10v5h-3v5h3v5H6c-1.5 0-2.5-1-2.5-2.5V5c0-1.5 1-2.5 2.5-2.5h2.5Z" stroke="#000" stroke-linecap="round" stroke-linejoin="round"/></symbol><symbol id="phone2"><path d="M7 8h8.5m0 0L13 5.5M15.5 8 13 10.5M5.5.5v5h-3v5h3v5H3c-1.5 0-2.5-1-2.5-2.5V3C.5 1.5 1.5.5 3 .5h2.5Z" stroke="#000" stroke-linecap="round" stroke-linejoin="round"/></symbol><symbol id="telegram"><path fill-rule="evenodd" clip-rule="evenodd" d="M19.96.153c.18.15.265.382.227.611l-2.626 15.757a.657.657 0 0 1-1.012.439l-7.878-5.253a.656.656 0 0 1-.149-.956l2.611-3.263-4.36 2.906a.657.657 0 0 1-.658.041L.863 7.81a.657.657 0 0 1 .073-1.205L19.319.038a.657.657 0 0 1 .642.115ZM2.827 7.323 6.362 9.09l7.561-5.04a.656.656 0 0 1 .877.956l-4.805 6.006 6.438 4.292L18.708 1.65 2.826 7.323Z" fill="currentColor"/></symbol><symbol id="vkontakte"><path d="M.5 2.339c0-.855.515-1.316 1.545-1.383l3.97.025a.52.52 0 0 1 .533.377c.409 1.257.866 2.343 1.372 3.257.506.913 1.168 1.965 1.985 3.156.071.15.187.226.346.226.125 0 .223-.059.293-.176l.08-.277.027-4.35c0-.302-.075-.503-.226-.604-.151-.1-.431-.176-.84-.226-.32-.05-.48-.235-.48-.553 0-.067.01-.118.027-.151C9.505.57 10.572.025 12.33.025L13.822 0c.675 0 1.234.16 1.678.478.444.318.666.821.666 1.509v5.708c.125.084.24.126.347.126.266 0 .497-.15.692-.453 1.954-2.582 3.011-4.308 3.17-5.18 0-.017.019-.059.054-.126.125-.251.329-.47.613-.654.284-.184.533-.31.746-.377a.554.554 0 0 1 .24-.05h4.13l.266.025c.355 0 .63.16.826.478.07.1.12.21.146.327.027.117.045.234.054.352.009.117.013.184.013.2v.177c-.124.687-.44 1.42-.946 2.2-.506.78-1.15 1.622-1.931 2.528-.782.905-1.27 1.5-1.466 1.785-.16.201-.24.386-.24.554 0 .134.071.285.213.452l3.89 4.627c.213.269.32.562.32.88 0 .386-.16.705-.48.956-.32.252-.701.394-1.145.428l-.453.025h-4.05a.855.855 0 0 0-.106.012.862.862 0 0 1-.107.013c-.39 0-.755-.16-1.092-.478-.125-.134-.96-1.123-2.505-2.967a1.387 1.387 0 0 0-.373-.327c-.07.268-.164.654-.28 1.157-.115.503-.2.863-.253 1.081l-.08.428c-.177.586-.55.938-1.119 1.056l-.373.025h-2.61c-1.475 0-2.945-.637-4.41-1.911-1.466-1.275-2.784-2.922-3.957-4.942C2.738 8.102 1.646 5.75.633 3.068a1.916 1.916 0 0 1-.133-.73Zm16.013 6.513c-.373 0-.71-.096-1.013-.29-.302-.192-.453-.456-.453-.791V1.987c0-.336-.089-.575-.266-.717-.178-.143-.489-.214-.933-.214l-1.518.05c-.764 0-1.341.126-1.732.378.781.352 1.172.922 1.172 1.71V7.62a1.5 1.5 0 0 1-.533 1.043 1.59 1.59 0 0 1-1.066.415c-.532 0-.94-.243-1.225-.729C7.56 6.371 6.53 4.493 5.856 2.716l-.24-.654-3.544-.025c-.231 0-.36.013-.386.038-.027.025-.04.096-.04.213 0 .151.017.31.053.478l.56 1.409c1.491 3.638 3.112 6.505 4.862 8.6 1.75 2.096 3.468 3.144 5.155 3.144h2.665c.106 0 .186-.03.24-.088.053-.06.097-.172.133-.34l.053-.251.506-2.213c.142-.302.267-.503.373-.604a.975.975 0 0 1 .693-.277c.426 0 .861.243 1.305.73l2.265 2.716c.142.218.293.327.453.327h4.396c.533 0 .8-.126.8-.378a.466.466 0 0 0-.08-.251l-3.864-4.552c-.302-.352-.453-.73-.453-1.131 0-.403.142-.788.427-1.157.23-.336.679-.893 1.345-1.673a37.63 37.63 0 0 0 1.745-2.188c.498-.679.826-1.295.986-1.848l.08-.327a.371.371 0 0 1-.027-.163.574.574 0 0 0-.026-.189h-4.183c-.267.1-.48.252-.64.453l-.16.478c-.444 1.156-1.607 2.942-3.49 5.356a1.892 1.892 0 0 1-1.305.503Z" fill="currentColor"/></symbol><symbol id="youtube"><path d="m16.35 8.793-5.236-3.491a.655.655 0 0 0-1.014.545v6.982a.654.654 0 0 0 1.014.546l5.237-3.491a.654.654 0 0 0 0-1.091Zm-4.94 2.814V7.07l3.403 2.27-3.404 2.268Zm12.48-8.563a2.4 2.4 0 0 0-1.452-1.637C18.718-.022 12.751 0 12.5 0c-.25 0-6.218-.022-9.938 1.407A2.4 2.4 0 0 0 1.11 3.044C.827 4.113.5 6.076.5 9.338c0 3.262.327 5.226.61 6.295a2.4 2.4 0 0 0 1.452 1.636c3.72 1.43 9.687 1.407 9.938 1.407h.076c.753 0 6.317-.043 9.862-1.407a2.4 2.4 0 0 0 1.451-1.636c.284-1.07.611-3.033.611-6.295s-.327-5.225-.61-6.294Zm-1.266 12.261a1.09 1.09 0 0 1-.655.742c-3.49 1.342-9.404 1.32-9.469 1.32-.066 0-5.978.022-9.47-1.32a1.09 1.09 0 0 1-.654-.742c-.261-1.003-.567-2.847-.567-5.967 0-3.12.306-4.963.567-5.967a1.09 1.09 0 0 1 .655-.742c3.49-1.342 9.403-1.32 9.469-1.32.066 0 5.978-.022 9.47 1.32a1.092 1.092 0 0 1 .654.742c.262 1.004.567 2.847.567 5.967 0 3.12-.305 4.964-.567 5.968Z" fill="currentColor"/></symbol></svg>
